app/img/bg-logo.svg

<svg width="595" height="500" viewBox="0 0 595 500" fill="none" xmlns="http://www.w3.org/2000/svg">
<path fill-rule="evenodd" clip-rule="evenodd" d="M46.7946 687.461H0C0 687.461 187.848 109.284 207.75 48.0486C217.062 19.398 243.757 0 273.877 0H357.534C382.762 0 403.817 10.6562 416.908 28.6634C429.99 46.6715 433.701 69.7134 426.073 93.22C418.434 116.726 411.219 138.916 404.614 159.247C395.696 186.699 370.99 205.614 342.425 207.153C342.425 207.153 342.277 207.105 382.3 83.9191C385.834 73.0483 384.544 62.4078 378.992 54.7764C373.451 47.1459 364.1 42.6299 351.727 42.6299H279.941C265.845 42.6299 253.354 51.7072 248.993 65.1147L46.7946 687.461Z" fill="#F0145A"/>
<path fill-rule="evenodd" clip-rule="evenodd" d="M342.416 207.155H248.098L289.656 80.7613L336.673 81.0391L309.372 164.394L356.249 164.422L342.416 207.155Z" fill="url(#paint0_linear)"/>
<defs>
<linearGradient id="paint0_linear" x1="248.091" y1="182.946" x2="353.01" y2="237.784" gradientUnits="userSpaceOnUse">
<stop stop-color="#F0145A"/>
<stop offset="1" stop-color="#693264"/>
</linearGradient>
</defs>
</svg>

<svg width="595" height="500" fill="none" xmlns="http://www.w3.org/2000/svg"><path fill-rule="evenodd" clip-rule="evenodd" d="M46.795 687.461H0S187.848 109.284 207.75 48.049C217.062 19.398 243.757 0 273.877 0h83.657c25.228 0 46.283 10.656 59.374 28.663 13.082 18.009 16.793 41.05 9.165 64.557-7.639 23.506-14.854 45.696-21.459 66.027-8.918 27.452-33.624 46.367-62.189 47.906 0 0-.148-.048 39.875-123.234 3.534-10.87 2.244-21.511-3.308-29.143-5.541-7.63-14.892-12.146-27.265-12.146h-71.786c-14.096 0-26.587 9.077-30.948 22.485L46.795 687.46z" fill="#F0145A"/><path fill-rule="evenodd" clip-rule="evenodd" d="M342.416 207.155h-94.318l41.558-126.394 47.017.278-27.301 83.355 46.877.028-13.833 42.733z" fill="url(#paint0_linear)"/><defs><linearGradient id="paint0_linear" x1="248.091" y1="182.946" x2="353.01" y2="237.784" gradientUnits="userSpaceOnUse"><stop stop-color="#F0145A"/><stop offset="1" stop-color="#693264"/></linearGradient></defs></svg>
